X:32
T:Ma cousine Clmentine
C:Heintzen
O:France
A:Centre
R:Polka
S:80 airs  danser du centre France - La Chavanne - 1991
S:63
Z:Transcrit et/ou corrig par Michel BELLON - 2005-05-21
Z:Pour toute observation mailto:galouvielle@free.fr
M:2/4
L:1/8
K:G
S d/c/ |: BG G/F/G/B/ | AE EA/G/ | F/D/F/A/ d^c/d/ |1 e/d/^c/d/ B/G/d/c/ :|2 e/d/^c/d/ Gd/c/ ::
Bd dc/d/ | e2- e/d/c/B/ | AA AG/A/ | B/c/B/A/ Gd/c/ | Bd dc/d/ | e2 fe | d/e/d/c/ B/c/B/A/ |1 G3 d/c/ :|2 G3 S |]
%%footer $D   Galouvielle-MBe 2005 \nScottish France
